X: 20232
T: Joe Cassidy's
R: reel
M: 4/4
K: Amajor
eA~A2 fAgA|afec BABc|eA~A2 FECF|EFAB cA B/c/d|
eA~A2 fAgA|afec BABc|A,C Ec dF BA|GEFG A4||
c2Ac ecA2|defd ecAB|c2Ac ecAB|cABA GBE2|
c2Ac ecAc|defd ecAB|cedf egfa|gbeg aefg||
aA~A2 eAce|bB~B2 bagf|gebg afge|fB^df e2 fg|
aA~A2 eAce|bB~B2 bagf|^defg bgaf|gedB A4||

